!!!OTL-incipit: KEIN FEUER, KEINE KOHLE KANN BRENNEN SO HEISS
!!!ARE: Europa, Mitteleuropa, Deutschland, Sachsen
!!!SCT: Z0120
!!!TXL: @@DE
!!!YEM: Copyright 1995, estate of Helmut Schaffrath.
**kern	**text
*ICvox	*
*M3/4	*
*k[b-]	*
*F:	*
!LO:TX:a:t=Sachſen.	!
{8c	Kein
=1	=1
4f	Feu-
4f	-er,
8g	kei-
8g	-ne
=2	=2
4a	Koh-
4a	-le
8r}	.
{8cc	kann
=3	=3
8ddL	bren-
8ccJ	.
4b-	-nen
4a	ſo
=4	=4
16aqq	.
2g	heiß,
8r}	.
{8cc	als
=5	=5
8ddL	heim-
8ccJ	.
8b-L	-li-
8ccJ	.
8ddL	-che
8eeJ	.
=6	=6
16ffL	Lie-
16ee	.
16ff	.
16ddJ	.
4cc}	-be,
{8ddL	von
16cc	.
16b-J	.
=7	=7
4a	der
8a	Nie-
8a	-mand
4g	nichts
=8	=8
4fss	wei-
8fL	.
8aJ	.
8gL	.
8b-J	.
=9	=9
4ass	.
8a/L	.
8ccJ	.
8b-L	.
8ddJ	.
=10	=10
4cc	.
8ff	-ß
8r}	.
{8ddL	von
16cc	.
16b-J	.
=11	=11
4a	der
8a	Nie-
8a	-mand
4g	nichts
=12	=12
2f	weiß.
8r}	.
==	==
!!!AGN: Erzaehlung, lustige Romanze
!!!ONB: ESAC (Essen Associative Code) Database: ZUCCAL
!!!AMT: simple triple
!!!AIN: vox
!!!EED: Helmut Schaffrath
!!!EEV: 1.0
!!!GTL: II. Erzahlungen, lustige Romanzen, Kinder-Lieder und episch-lyrische Volks-Lieder.
!!!URL-scan: https://www.digitale-sammlungen.de/de/view/bsb11160571?page=229
!!!ENC: Anna Maria Matuszewska
!!!EEV: 2025/01/27
*-	*-
